X:60
T:John Hardy
C:Jimmy Gaudreau (Tony Rice Unit Live)
M:4/4
L:1/8
Q:1/8=500
K:A
A/A/AB2 c2|dddd dd[fd][fd]|[=gd][gd][gd][gd] [fd][fd][fd][fd]|e2ee e2ef| edcB ABce|
dcde f2ef|=gfgf efe2|[ae][ae][ae][ae] [ae]=gef|=gfed cABc|
dfed BcdB|A=GFE DEFD|A,B,CD E2AB|cAcB AcA2|
BBBB BcBA|GFEF GAB2|Bddd dcBc|BcBA GBAG|
EFGA Bcdf|eeef gefg|aecf ecef|=gfed cABc|d8|
